X: 3057
T: Beachcombers Of Bòrnais Bay, The
R: reel
M: 4/4
K: Amajor
EF|A2cA ~e3 f|ecBA cEFA|BABc efaf|ecBc AFEF|
ABcA e ~A3|e ~f3 ecBA|BABc efaf|1 ecBc A2:|2 ecBc A2 ce||
|:f2 af- fcBA|e2af ecBA|BBAB c ~e3|ffef abba|
f2 af- fcBA|e2 af ecBA|~E3 F AFAf|1 ecBc ABce:|2 ecBc A2||

